icon-themes/elementary_svg/cmd/sc_leftpanedraw.svg

<svg viewBox="0 0 16 16" xmlns="http://www.w3.org/2000/svg" xmlns:xlink="http://www.w3.org/1999/xlink"><linearGradient id="a" gradientUnits="userSpaceOnUse" x1="-20.059322" x2="-5.059322" y1="5.483051" y2="5.483051"><stop offset="0" stop-opacity=".34"/><stop offset="1" stop-opacity=".247"/></linearGradient>
/&amp;gt;<path d="m2.974.5c-.817 0-1.474.657-1.474 1.474v12.526h14v-12.526c0-.817-.657-1.474-1.474-1.474z" fill="#e9e9e9" stroke="url(#a)"/><path d="m3.205 1.5c-.39 0-.705.372-.705.834v1.666h12v-1.666c0-.462-.314-.834-.705-.834z" fill="none" opacity=".8" stroke="#fff"/><path d="m2 5h13v9h-13z" fill="#fff"/><path d="m2 4.5h13" fill="none" stroke="#8c8c8c"/><path d="m7 2h1v1h-1zm-2 0h1v1h-1zm-2 0h1v1h-1zm4 3h1v9h-1zm-4 1h3v1h-3zm0 1h1v2h-1zm0 2h3v1h-3zm2-2h1v2h-1zm-2 4h3v1h-3zm0 1h1v2h-1zm2 0h1v2h-1z" fill="#8c8c8c"/></svg>

<svg xmlns="http://www.w3.org/2000/svg" viewBox="0 0 16 16">/&gt;<path d="M2.974.5C2.157.5 1.5 1.157 1.5 1.974V14.5h14V1.974C15.5 1.157 14.843.5 14.026.5z" fill="#e9e9e9" stroke="#8c8c8c"/><path d="M3.205 1.5c-.39 0-.705.372-.705.834V4h12V2.334c0-.462-.314-.834-.705-.834z" opacity=".8" fill="none" stroke="#fff"/><path d="M2 5h13v9H2z" fill="#fff"/><path d="M2 4.5h13" fill="none" stroke="#8c8c8c"/><path d="M7 2h1v1H7zM5 2h1v1H5zM3 2h1v1H3zM7 5h1v9H7zM3 6h3v1H3zM3 7h1v2H3zM3 9h3v1H3zM5 7h1v2H5zM3 11h3v1H3zM3 12h1v2H3zM5 12h1v2H5z" fill="#8c8c8c"/></svg>
